vendor/shopware/storefront/Resources/app/storefront/dist/assets/icon/default/editor-align-right.svg

<svg xmlns="http://www.w3.org/2000/svg" width="12" height="12" viewBox="0 0 12 12">
  <path fill="#758CA3" fill-rule="evenodd" d="M2,1 L11,1 C11.5522847,1 12,1.44771525 12,2 C12,2.55228475 11.5522847,3 11,3 L2,3 C1.44771525,3 1,2.55228475 1,2 C1,1.44771525 1.44771525,1 2,1 Z M5,5 L11,5 C11.5522847,5 12,5.44771525 12,6 C12,6.55228475 11.5522847,7 11,7 L5,7 C4.44771525,7 4,6.55228475 4,6 C4,5.44771525 4.44771525,5 5,5 Z M1,9 L11,9 C11.5522847,9 12,9.44771525 12,10 C12,10.5522847 11.5522847,11 11,11 L1,11 C0.44771525,11 6.76353751e-17,10.5522847 0,10 C-6.76353751e-17,9.44771525 0.44771525,9 1,9 Z"/>
</svg>

<svg xmlns="http://www.w3.org/2000/svg" width="12" height="12" viewBox="0 0 12 12"><path fill="#758CA3" fill-rule="evenodd" d="M2 1h9c.5523 0 1 .4477 1 1s-.4477 1-1 1H2c-.5523 0-1-.4477-1-1s.4477-1 1-1zm3 4h6c.5523 0 1 .4477 1 1s-.4477 1-1 1H5c-.5523 0-1-.4477-1-1s.4477-1 1-1zM1 9h10c.5523 0 1 .4477 1 1s-.4477 1-1 1H1c-.5523 0-1-.4477-1-1s.4477-1 1-1z"/></svg>
